database-export.svg

<svg fill="currentColor" viewBox="0 0 24 24"><path d="M12 3C7.58 3 4 4.79 4 7s3.58 4 8 4c.5 0 1-.03 1.5-.08V9.5h2.89l-1-1L18.9 5c-1.4-1.2-3.96-2-6.9-2m6.92 4.08L17.5 8.5 20 11h-5v2h5l-2.5 2.5 1.42 1.42L23.84 12M4 9v3c0 2.21 3.58 4 8 4 1.17 0 2.26-.15 3.25-.37l1.13-1.13H13.5v-1.58c-.5.05-1 .08-1.5.08-4.42 0-8-1.79-8-4m0 5v3c0 2.21 3.58 4 8 4 2.94 0 5.5-.8 6.9-2L17 17.1c-1.39.56-3.1.9-5 .9-4.42 0-8-1.79-8-4"/></svg>

<svg  viewBox="0 0 24 24" fill="currentColor"><path  d="M12,3C7.58,3 4,4.79 4,7C4,9.21 7.58,11 12,11C12.5,11 13,10.97 13.5,10.92V9.5H16.39L15.39,8.5L18.9,5C17.5,3.8 14.94,3 12,3M18.92,7.08L17.5,8.5L20,11H15V13H20L17.5,15.5L18.92,16.92L23.84,12M4,9V12C4,14.21 7.58,16 12,16C13.17,16 14.26,15.85 15.25,15.63L16.38,14.5H13.5V12.92C13,12.97 12.5,13 12,13C7.58,13 4,11.21 4,9M4,14V17C4,19.21 7.58,21 12,21C14.94,21 17.5,20.2 18.9,19L17,17.1C15.61,17.66 13.9,18 12,18C7.58,18 4,16.21 4,14Z"/></svg>
